X:721
%%etbk:tnset id:479,pos:2,rep:3x,ant:
%%etbk:wsite https://thesession.org/tunes/280
%%etbk:video src:ytube,cde:k95iXfZ7O0A,desc:first tune
%%etbk:video src:ytube,cde:rlLUEaBANNw,desc:
%%etbk:video src:ytube,cde:-01a8LMQpfA,desc:third tune
%%etbk:pldat 2016-09-16T17:33,2016-09-13T16:18,2016-09-11T17:03,2016-09-06T15:43,2016-09-03T11:46,2016-08-04T18:39,2016-07-26T17:01,2016-07-21T19:01,2016-07-18T18:46,2016-07-07T16:20,2016-06-12T13:53,2016-05-26T18:56,2016-05-23T18:18,2016-05-12T18:47,2016-05-03T16:42,2016-04-12T15:13,2016-04-02T14:58,2016-03-25T16:56,2016-03-20T15:37,2016-03-14T18:41,2016-02-11T17:59,2016-01-25T19:15,2016-01-20T17:21,2016-01-16T15:57,2016-01-10T13:46,2016-01-02T14:03,2015-12-28T17:09,2015-12-22T16:30,2015-12-16T17:22,2015-12-13T15:07,2015-11-29T13:40,2015-11-25T16:28,2015-11-24T17:57,2015-10-21T18:12,2015-10-14T16:58,2015-10-03T17:17,2015-09-30T17:24,2015-09-29T16:15,2015-09-10T17:32,2015-09-09T17:35,2015-09-03T17:05,2015-09-01T17:28,2015-08-28T19:45,2015-08-23T15:20,2015-08-19T17:24,2015-08-15T15:50,2015-08-13T18:44,2015-08-09T16:24,2015-08-04T17:24,2015-08-02T12:14,2015-07-31T18:20,2015-07-29T15:12,2015-07-25T15:36,2015-07-23T18:38,2015-07-19T16:02,2015-07-18T14:58,2015-07-17T16:56,2015-07-08T09:21,2015-06-22T19:23,2015-06-17T16:24,2015-06-14T16:37,2015-06-11T19:38,2015-06-08T18:57,2015-06-06T14:21,2015-06-04T18:35,2015-06-01T16:29,2015-05-31T16:13,2015-05-10T15:17,2015-05-05T15:40,2015-05-02T17:17,2015-04-29T22:03
T: Seanamhac Tube Station
Z: Piano Box Version by Martin Fleischmann
H: Created 2015-04-28 /  Last Modified 2015-12-13
R: jig
M: 6/8
L: 1/8
P:A-B-A-B-C-A-B
K:Ador
P:A
|:!4!A!3!G!2!E E2 !3!G|!1!ABd !5!e2e|!5!edB !4!d!2!B!1!G|!2!A!1!G!2!E DE!3!G|
|1!4!~A3 A!3!G!2!E|!1!AB!4!d !5!e2e|edB dB!1!G|!2!~A3 A2 B:|
|2EAG !2!E2!3!G|!1!ABd !5!e!1!d!3!f|!2!edf e!1!d!2!B|!1!~A3 AB!3!d||
P:B
!4!efe edB|!3!~d3 B2 d|!4!edB !3!dB!1!G|!2!A!1!G!2!E !1!D2 !3!d|
!4!efe ed!2!B|!1!~d3 !5!age|e!1!d!3!B dB!1!G|!1!~A3 ABd|
!4!efe ed!2!B|!3!~d3 B2 d|edB dBG|A!1!G!2!E !1!D!2!E!3!G|
AGE E2G|!1!ABd ed!5!f|!4!edf edB|~A3 A2 B||
P:C
|:!2!e3 !4!a3|!3!g2 a b2a|!4!age !1!d2!2!e|!1!d!3!BA !1!GA!3!B|
|1!5!e2!2!e a3|!3!g2 a b2a|!4!age !1!d!3!B!1!G|!1!A3 ABd:|
|2AGE AGE|ABd edf|edf edB|A2 B c{d}cB||


